polaris-icons/icons/newicons/Rows2Major.svg

<svg width="20" height="20" viewBox="0 0 20 20" fill="none" xmlns="http://www.w3.org/2000/svg">
<path fill-rule="evenodd" clip-rule="evenodd" d="M3 6C3 4.34315 4.34315 3 6 3H14C15.6569 3 17 4.34315 17 6V14C17 15.6569 15.6569 17 14 17H6C4.34315 17 3 15.6569 3 14V6ZM6 4.5H14C14.8284 4.5 15.5 5.17157 15.5 6V9.25H4.5V6C4.5 5.17157 5.17157 4.5 6 4.5ZM4.5 10.75V14C4.5 14.8284 5.17157 15.5 6 15.5H14C14.8284 15.5 15.5 14.8284 15.5 14V10.75H4.5Z" fill="black"/>
</svg>

<svg viewBox="0 0 20 20" fill="none" xmlns="http://www.w3.org/2000/svg"><path fill-rule="evenodd" clip-rule="evenodd" d="M3 6a3 3 0 0 1 3-3h8a3 3 0 0 1 3 3v8a3 3 0 0 1-3 3h-8a3 3 0 0 1-3-3v-8Zm3-1.5h8a1.5 1.5 0 0 1 1.5 1.5v3.25h-11v-3.25a1.5 1.5 0 0 1 1.5-1.5Zm-1.5 6.25v3.25a1.5 1.5 0 0 0 1.5 1.5h8a1.5 1.5 0 0 0 1.5-1.5v-3.25h-11Z" fill="#5C5F62"/></svg>
